Origami/16x16/apps/help-faq-symbolic.svg

<svg width="16" height="16" version="1.1" xmlns="http://www.w3.org/2000/svg">
 <path d="m3 4c-0.554 0-1 0.45-1 1v10c0 0.55 0.446 1 1 1h8c0.554 0 1-0.45 1-1v-7l-4-4zm4 3c1.1 0 2 0.9 2 2s-0.9 2-2 2v1h-1v-2h1c0.55 0 1-0.45 1-1s-0.45-1-1-1-1 0.45-1 1h-1c0-1.1 0.9-2 2-2zm-1 6h1v1h-1z" style="fill:#5c5c5c"/>
 <path d="m6 1c-0.554 0-1 0.45-1 1v1h4l4 4v6h1c0.554 0 1-0.45 1-1v-7l-4-4z" style="fill:#5c5c5c"/>
</svg>

<svg xmlns="http://www.w3.org/2000/svg" width="16" height="16" version="1.1">
 <path style="fill:#5c5c5c" d="M 3,4 C 2.446,4 2,4.45 2,5 V 15 C 2,15.55 2.446,16 3,16 H 11 C 11.554,16 12,15.55 12,15 V 8 L 8,4 Z M 7,7 C 8.1,7 9,7.9 9,9 9,10.1 8.1,11 7,11 V 12 H 6 V 10 H 7 C 7.55,10 8,9.55 8,9 8,8.45 7.55,8 7,8 6.45,8 6,8.45 6,9 H 5 C 5,7.9 5.9,7 7,7 Z M 6,13 H 7 V 14 H 6 Z"/>
 <path style="fill:#5c5c5c" d="M 6,1 C 5.446,1 5,1.45 5,2 V 3 H 9 L 13,7 V 13 H 14 C 14.554,13 15,12.55 15,12 V 5 L 11,1 Z"/>
</svg>
